X:1
T:Title
%%score { ( 1 4 ) | ( 2 3 ) }
L:1/8
M:6/8
K:D
V:1 treble nm="Grand Piano"
V:4 treble 
V:2 bass 
V:3 bass 
V:1
 z3 z2[Q:1/4=90] F | F2 F FED | dcB A2 A | F>FF FED | AGF [CE]2 [CE] | F2 F FEF | G2 G G2 G | %7
 G2 G GFG | A2 A A2 A | A2 A A^GA | B2 B edB | A2 A AAd | %12
[M:13/16] [Ec][Fd][Ge]>[Fd]-[Fd]/-[Fd]-<[Fd] |[M:3/4] [Fd]4 z2 | [FA]4 z2 | [CG]4 z2 | [DF]4 z2 | %17
 [GB]->[DG-B-] [DG-B-][DGB] [DAc][DBd] | [FA]->[DF-A-] [DFA] [Fd]2 [Fd] | [Gc]4 z2 | %20
[M:5/8] [Fd]-[Fd]- [Fd]3 |] %21
V:2
 z3 z2 [D,A,D] | [D,A,D]2 [D,A,D] [D,A,D][D,G,C][D,F,] | .B,3 z3 | .D3 z3 | .[A,D]3 z3 | %5
 [D,A,D]2 [D,A,D] [D,A,D][C,A,][D,A,D] | [E,A,C]2 [E,A,C] [E,A,C]2 [E,A,C] | %7
 [E,A,C]2 [E,A,C] [E,A,C][D,A,D][E,A,C] | [F,A,D]2 [F,D] [F,D]2 [F,D] | %9
 [F,D]2 [F,D] [F,D][=F,D][^F,D] | [G,D]2 [G,D] [G,B,G]2 [G,DG] | %11
 [A,DF]2 [A,DF] [A,DF][A,DF][A,DF] | %12
[M:13/16][K:bass] [A,,A,]-<[A,,A,][A,,A,]>[D,A,]-[D,A,]/-[D,A,]-<[D,A,] | %13
[M:3/4] [D,A,]>D, D,D, [D,A,][D,D] | [D,D]2 D, .D,3 | A,,>A,, A,,A,, A,,A,, | D,2 D, .D,3 | %17
 G,>G, G,G,, G,,B,, | D,>D, D, [D,A,]3 | [A,,A,]>A,, A,,A,, [A,,A,][A,,A,] | %20
[M:5/8] [D,A,]>D,D, D,2 |] %21
V:3
 x6 | x6 | [D,D]-[D,A,D][D,G,D] [D,F,D]2 [D,F,D] | [D,A,]->[D,A,D][D,A,D] [D,A,D][C,A,][D,F,A,] | %4
 F,E,[D,A,D] [A,,A,]2 [A,,A,] | x6 | x6 | x6 | x6 | x6 | x6 | x6 |[M:13/16][K:bass] x13/2 | %13
[M:3/4] x6 | x6 | x6 | x6 | x6 | x6 | x6 |[M:5/8] x5 |] %21
V:4
 x6 | x6 | x6 | x6 | x6 | x6 | x6 | x6 | x6 | x6 | x6 | x6 |[M:13/16] x13/2 | %13
[M:3/4] z z/ A,/ A,A, [Ac][GB] | z2 D .[A,DF]3 | A,>A, A,A, [A,DF][A,CE] | A,2 A, .[DFA]3 | %17
 D2 z2 z2 | D2 z2 z2 | z z/ A,/ A,A, [GB][Gc] |[M:5/8] z z/ A,/A, A,2 |] %21

